X: 37907
T: South Wind, The
R: waltz
M: 3/4
K: Gmajor
|:c2|B3 A G2|B2 c2 d2|A3 B A^G|A4 dc|B2 BA G2|E3 D E2|G6-|G4:|
d2|g3 a gf|g2 f/g/f e2|d3 e d2|d4 c2|B3 A G2|B2 c2 d2|A3 B A2|A4 d/e/f|
g2 ga gf|g2 f2 e2|d3 e d2|d4 cd|B3 d G2|Ac- c2 F2|G3 A GF|G4||

